src/imagens/sectionProjetos/tHtml.svg

<svg width="64" height="17" viewBox="0 0 64 17" fill="none" xmlns="http://www.w3.org/2000/svg">
<path d="M0 16.8802V0.240234H3.2V6.4109H10.4V0.240234H13.6V16.8802H10.4V9.7389H3.2V16.8802H0ZM21.0667 16.8802V3.56823H16.4V0.240234H28.9333V3.56823H24.2667V16.8802H21.0667ZM31.7333 16.8802V2.59757C31.7333 1.90423 31.9444 1.33801 32.3667 0.898901C32.7889 0.45979 33.3333 0.240234 34 0.240234H47.3333C48 0.240234 48.5444 0.45979 48.9667 0.898901C49.3889 1.33801 49.6 1.90423 49.6 2.59757V16.8802H46.4V3.56823H42.2667V13.9682H39.0667V3.56823H34.9333V16.8802H31.7333ZM53.4667 16.8802V0.240234H56.6667V13.5522H64V16.8802H53.4667Z" fill="#808080"/>
</svg>

<svg xmlns="http://www.w3.org/2000/svg" width="64" height="17" fill="none"><path fill="gray" d="M0 16.88V.24h3.2v6.17h7.2V.24h3.2v16.64h-3.2V9.74H3.2v7.141H0Zm21.067 0V3.568H16.4V.24h12.533v3.328h-4.666V16.88h-3.2Zm10.666 0V2.598c0-.694.211-1.26.634-1.7C32.789.46 33.333.24 34 .24h13.333c.667 0 1.211.22 1.634.659.422.439.633 1.005.633 1.699V16.88h-3.2V3.568h-4.133v10.4h-3.2v-10.4h-4.134V16.88h-3.2Zm21.734 0V.24h3.2v13.312H64v3.328H53.467Z"/></svg>
